X: 755
T: Old Piss
B: jims roots
M:C|
L:1/8
R: Reel or March
Q: 1/4=100
K:D
V:1 
%S:fifers from southwest Pennsylvania (Bayard)
ag|:"D"f2A2f2A2 | ([A4f4][A2f2]) gf | "A"edcd e2 fe | "G"dcBA "D"F2 ag|
f2A2f2A2 | ([A4f4][A2f2]) gf | "A"edcd e2f2 |[1 "D"D-yd2 D-yd2 ag:| [2 "D"D-yd2 D-yd2 AG||
|: "D"FGA2 d2c2 | "G"[G6B6] cd | "A"e2A2 ABAG | "D"F6 AG |
"D"F2A2 dedc | "G"[G6B6] cd | "A"e2A2 BAcA | [1 "D"d6 AG:| [2 "D"d6 ag:|
% abcbook-tune_id 6298c2795fa201ef1f99f9c4


% abcbook-boost 0
% abcbook-tablature 
% abcbook-transpose 
% abcbook-lastupdated 1654178426070
% abcbook-soundfonts 
% abcbook-repeats 1


